packages/helpers/qrcode-modal/src/browser/assets/caret.svg

<svg fill="none" height="18" viewBox="0 0 8 18" width="8" xmlns="http://www.w3.org/2000/svg"><path clip-rule="evenodd" d="m.586301.213898c-.435947.33907-.5144813.967342-.175411 1.403292l4.87831 6.27212c.28087.36111.28087.86677 0 1.22788l-4.878311 6.27211c-.33907.436-.260536 1.0642.175412 1.4033.435949.3391 1.064219.2605 1.403289-.1754l4.87832-6.2721c.84259-1.08336.84259-2.60034 0-3.68367l-4.87832-6.27212c-.33907-.4359474-.96734-.514482-1.403289-.175412z" fill="#3c4252" fill-rule="evenodd"/></svg>

<svg width="8" height="18" viewBox="0 0 8 18" fill="none" xmlns="http://www.w3.org/2000/svg">
<path fill-rule="evenodd" clip-rule="evenodd" d="M0.586301 0.213898C0.150354 0.552968 0.0718197 1.18124 0.41089 1.61719L5.2892 7.88931C5.57007 8.25042 5.57007 8.75608 5.2892 9.11719L0.410889 15.3893C0.071819 15.8253 0.150353 16.4535 0.586301 16.7926C1.02225 17.1317 1.65052 17.0531 1.98959 16.6172L6.86791 10.3451C7.7105 9.26174 7.7105 7.74476 6.86791 6.66143L1.98959 0.38931C1.65052 -0.0466374 1.02225 -0.125172 0.586301 0.213898Z" fill="#3C4252"/>
</svg>
